inst/assets/svg/wi-night-alt-cloudy.svg

<?xml version="1.0" encoding="UTF-8"?>
<svg xmlns="http://www.w3.org/2000/svg" xmlns:xlink="http://www.w3.org/1999/xlink" width="30pt" height="30pt" viewBox="0 0 30 30" version="1.1">
<g id="surface616">
<path style=" stroke:none;fill-rule:nonzero;fill:rgb(0%,0%,0%);fill-opacity:1;" d="M 4.140625 16.898438 C 4.140625 15.738281 4.488281 14.71875 5.199219 13.820313 C 5.910156 12.921875 6.820313 12.351563 7.941406 12.101563 C 8.171875 11.070313 8.640625 10.171875 9.339844 9.398438 C 10.039063 8.628906 10.890625 8.078125 11.871094 7.75 C 12.488281 7.539063 13.128906 7.429688 13.800781 7.429688 C 14.609375 7.429688 15.398438 7.589844 16.148438 7.910156 C 16.429688 7.441406 16.761719 7.03125 17.140625 6.691406 C 17.519531 6.351563 17.910156 6.078125 18.308594 5.898438 C 18.710938 5.71875 19.109375 5.578125 19.488281 5.488281 C 19.871094 5.398438 20.25 5.359375 20.609375 5.359375 C 20.988281 5.359375 21.398438 5.410156 21.839844 5.519531 L 22.660156 5.769531 C 22.800781 5.828125 22.839844 5.898438 22.800781 5.988281 L 22.660156 6.589844 C 22.589844 6.898438 22.558594 7.191406 22.558594 7.449219 C 22.558594 7.761719 22.609375 8.078125 22.710938 8.398438 C 22.808594 8.71875 22.949219 9.03125 23.148438 9.339844 C 23.339844 9.648438 23.609375 9.921875 23.949219 10.171875 C 24.289063 10.421875 24.671875 10.609375 25.101563 10.738281 L 25.71875 10.960938 C 25.820313 10.988281 25.871094 11.039063 25.871094 11.121094 C 25.871094 11.140625 25.859375 11.160156 25.851563 11.191406 L 25.671875 11.859375 C 25.398438 12.941406 24.890625 13.789063 24.171875 14.429688 C 24.570313 15.128906 24.789063 15.878906 24.820313 16.671875 C 24.828125 16.71875 24.828125 16.789063 24.828125 16.898438 C 24.828125 17.789063 24.609375 18.621094 24.160156 19.378906 C 23.71875 20.140625 23.109375 20.738281 22.359375 21.179688 C 21.601563 21.621094 20.769531 21.851563 19.878906 21.851563 L 9.070313 21.851563 C 8.179688 21.851563 7.351563 21.628906 6.589844 21.179688 C 5.828125 20.730469 5.238281 20.128906 4.800781 19.378906 C 4.359375 18.628906 4.140625 17.800781 4.140625 16.898438 Z M 5.851563 16.898438 C 5.851563 17.789063 6.171875 18.558594 6.808594 19.210938 C 7.449219 19.859375 8.199219 20.191406 9.070313 20.191406 L 19.878906 20.191406 C 20.769531 20.191406 21.53125 19.871094 22.160156 19.21875 C 22.789063 18.570313 23.109375 17.800781 23.109375 16.898438 C 23.109375 16.019531 22.789063 15.269531 22.148438 14.640625 C 21.511719 14.011719 20.75 13.691406 19.871094 13.691406 L 18.089844 13.691406 L 17.988281 12.941406 C 17.890625 11.929688 17.46875 11.058594 16.730469 10.351563 C 15.988281 9.640625 15.109375 9.238281 14.101563 9.148438 C 14.070313 9.148438 14.019531 9.148438 13.949219 9.140625 C 13.878906 9.128906 13.839844 9.128906 13.800781 9.128906 C 13.289063 9.128906 12.78125 9.230469 12.261719 9.421875 L 12.261719 9.398438 C 11.53125 9.679688 10.910156 10.140625 10.421875 10.769531 C 9.921875 11.398438 9.621094 12.121094 9.519531 12.941406 L 9.449219 13.660156 L 8.769531 13.691406 C 7.929688 13.789063 7.230469 14.140625 6.671875 14.75 C 6.109375 15.359375 5.851563 16.070313 5.851563 16.898438 Z M 17.601563 8.789063 C 18.660156 9.699219 19.320313 10.761719 19.570313 11.96875 L 19.890625 11.96875 C 21.128906 11.96875 22.191406 12.359375 23.058594 13.148438 C 23.390625 12.839844 23.640625 12.480469 23.820313 12.078125 C 22.910156 11.648438 22.191406 10.988281 21.660156 10.109375 C 21.140625 9.230469 20.871094 8.300781 20.871094 7.328125 L 20.871094 7.089844 C 20.820313 7.078125 20.738281 7.078125 20.628906 7.078125 C 20.050781 7.070313 19.480469 7.210938 18.929688 7.519531 C 18.378906 7.820313 17.929688 8.238281 17.601563 8.789063 Z M 17.601563 8.789063 "/>
</g>
</svg>

<?xml version="1.0" encoding="utf-8"?>
<!-- Generator: Adobe Illustrator 22.0.1, SVG Export Plug-In . SVG Version: 6.00 Build 0)  -->
<svg version="1.1" id="Layer_1" xmlns="http://www.w3.org/2000/svg" xmlns:xlink="http://www.w3.org/1999/xlink" x="0px" y="0px"
	 viewBox="0 0 30 30" style="enable-background:new 0 0 30 30;" xml:space="preserve">
<path d="M4.14,16.9c0-1.16,0.35-2.18,1.06-3.08s1.62-1.47,2.74-1.72c0.23-1.03,0.7-1.93,1.4-2.7c0.7-0.77,1.55-1.32,2.53-1.65
	c0.62-0.21,1.26-0.32,1.93-0.32c0.81,0,1.6,0.16,2.35,0.48c0.28-0.47,0.61-0.88,0.99-1.22c0.38-0.34,0.77-0.61,1.17-0.79
	c0.4-0.18,0.8-0.32,1.18-0.41s0.76-0.13,1.12-0.13c0.38,0,0.79,0.05,1.23,0.16l0.82,0.25c0.14,0.06,0.18,0.13,0.14,0.22l-0.14,0.6
	c-0.07,0.31-0.1,0.6-0.1,0.86c0,0.31,0.05,0.63,0.15,0.95c0.1,0.32,0.24,0.63,0.44,0.94c0.19,0.31,0.46,0.58,0.8,0.83
	c0.34,0.25,0.72,0.44,1.15,0.57l0.62,0.22c0.1,0.03,0.15,0.08,0.15,0.16c0,0.02-0.01,0.04-0.02,0.07l-0.18,0.67
	c-0.27,1.08-0.78,1.93-1.5,2.57c0.4,0.7,0.62,1.45,0.65,2.24c0.01,0.05,0.01,0.12,0.01,0.23c0,0.89-0.22,1.72-0.67,2.48
	c-0.44,0.76-1.05,1.36-1.8,1.8c-0.76,0.44-1.59,0.67-2.48,0.67H9.07c-0.89,0-1.72-0.22-2.48-0.67s-1.35-1.05-1.79-1.8
	S4.14,17.8,4.14,16.9z M5.85,16.9c0,0.89,0.32,1.66,0.96,2.31c0.64,0.65,1.39,0.98,2.26,0.98h10.81c0.89,0,1.65-0.32,2.28-0.97
	s0.95-1.42,0.95-2.32c0-0.88-0.32-1.63-0.96-2.26c-0.64-0.63-1.4-0.95-2.28-0.95h-1.78l-0.1-0.75c-0.1-1.01-0.52-1.88-1.26-2.59
	s-1.62-1.11-2.63-1.2c-0.03,0-0.08,0-0.15-0.01c-0.07-0.01-0.11-0.01-0.15-0.01c-0.51,0-1.02,0.1-1.54,0.29V9.4
	c-0.73,0.28-1.35,0.74-1.84,1.37c-0.5,0.63-0.8,1.35-0.9,2.17l-0.07,0.72l-0.68,0.03c-0.84,0.1-1.54,0.45-2.1,1.06
	S5.85,16.07,5.85,16.9z M17.6,8.79c1.06,0.91,1.72,1.97,1.97,3.18h0.32c1.24,0,2.3,0.39,3.17,1.18c0.33-0.31,0.58-0.67,0.76-1.07
	c-0.91-0.43-1.63-1.09-2.16-1.97c-0.52-0.88-0.79-1.81-0.79-2.78V7.09c-0.05-0.01-0.13-0.01-0.24-0.01
	c-0.58-0.01-1.15,0.13-1.7,0.44C18.38,7.82,17.93,8.24,17.6,8.79z"/>
</svg>
